!!!!SEGMENT: pl-wtm--r-1630_stefani-jozef--z-nadchodzaca-kazda-wiosna.krn
!!!cenid: 18xx:2365
!!!COM: Stefani, Józef
!!!COM-rismID: pe30024097
!!!CDT: 1800/04/16-1876/03/19
!!!CNT: Polish
!!!OTL: Z nadchodzącą każdą wiosną
!!!PDT:
!!!AGN:
!!!SMS-siglum: PL-Wtm
!!!SMS-shelfmark: R 1630
!!!SMS-shelfwork: W
!!!SMS-variant:
!!!SMS-altvar:
!!!NIFC-rismSourceID: 1001115622
!!!NIFC-islandoraID: pl-wtm:27395
!!!URL-pdf-islandora: https://repozytorium.nifc.pl/islandora/object/pl-wtm%3A27395/datastream/PDF/view
!!!URL-scan: https://polish.musicsources.pl/pl/lokalizacje/galeria/rekopisy/6389 @EN{Scan on Polish Music Sources Website} @PL{Skany w portalu Dziedzictwo Muzyki Polskiej w otwartym dostępie}
!!!ONB-nifc:
!!!AIN: 1 empty 2 tenor
!!!key:
**kern	**text	**dynam	**kern	**kern	**text	**dynam
*part3	*part3	*part3	*part2	*part1	*part1	*part1
*staff3	*staff3	*	*staff2	*staff1	*staff1	*
*Iempty	*	*	*Itenor	*Itenor	*	*
*I"Baſso	*	*	*I"Tenore 2o.	*I"Tenore 1o.	*	*
*I'B	*	*	*I'T 2	*I'T 1	*	*
*clefF4	*	*	*clefC4	*clefC4	*	*
*k[f#]	*	*	*k[f#]	*k[f#]	*	*
*G:	*	*	*G:	*G:	*	*
*M3/4	*	*	*M3/4	*M3/4	*	*
*2\right	*	*	*2\right	*2\right	*	*
!!LO:TX:a:t=P:problem:all\right:global
!	!	!	!	!LO:TX:a:Bi:t=Wiersz A. Krasińskiego \nmuzyka J. Stefaniego.	!	!
!	!	!	!	!LO:TX:a:Bi:t=dolce	!	!
!	!	!	!	!	!	!LO:DY:a:rj
8.G\	Z nad-	.	8.G/	8.B\	.	mf
16D\	-cho-	.	16F#/	16A\	.	.
=1	=1	=1	=1	=1	=1	=1
4G\	-dzą-	.	4G/	4B\	.	.
4BB/	-cą	.	4G/	4d\	.	.
8.AA/	Każ-	.	8.E/	8.c\	.	.
16D\	-dą	.	16F#/	16A\	.	.
=2	=2	=2	=2	=2	=2	=2
4G\	wio-	.	4G/	4B\	.	.
8G\	-sną	.	8G/	8B\	.	.
8r	.	.	8r	8r	.	.
4E\	Sko-	.	4G#X/	4B\	.	.
!!LO:LB:g=original
=3	=3	=3	=3	=3	=3	=3
4A\	-wro-	.	4A/	4c\	.	.
8.A\	-nek	.	8.A/	8.c\	.	.
16E\	pod	.	16G#X/	16B\	.	.
8.A\	Nie-	.	8.A\	8.c\	.	.
16F#\	-bo	.	16c\	16e\	.	.
=4	=4	=4	=4	=4	=4	=4
!	!	!	!	!LO:TX:a:t=P:problem=diminuendolike accent	!	!
4F#\	wzla-	.	4c\	4e^>\	.	.
4G\	-ta	.	4B\	4d\	.	.
4G\	By	.	4B\	(>8B\L	.	.
.	.	.	.	8e\J)	.	.
=5	=5	=5	=5	=5	=5	=5
4F#\	ucz-	.	4A\	4e\	.	.
8.F#\	-cić	.	8.A\	8.d#X\	.	.
16G\	pies-	.	16B\	16B\	.	.
8E\	-nią	.	8B\	8g\	.	.
8G\	ra-	.	8B\	8e\	.	.
!!LO:LB:g=original
=6	=6	=6	=6	=6	=6	=6
4G\	-do-	.	4A\	(>16d\LL	.	.
.	.	.	.	16c#X\	.	.
.	.	.	.	16e\	.	.
.	.	.	.	16d\JJ	.	.
8G\	-sną	.	8A\	8c#\)	.	.
8r	.	.	8r	8r	.	.
!	!	!	!	!	!	!LO:DY:a:rj
4F#\	Wiel-	.	4A\	4d\	.	f
=7	=7	=7	=7	=7	=7	=7
8G\	-kie-	.	8G/	8B\	.	.
8G\	-go	.	8G/	8B\	.	.
4E\	Twór-	.	4G/	4e\	.	.
8.G\	-cę	.	8.G/	8.B\	.	.
16r	.	.	16G/	16B\	Wszech-	.
=8	=8	=8	=8	=8	=8	=8
4r	.	.	(<4.F#/	(>4.A\	-świa	.
8r	.	.	.	.	.	.
8AA/	Wszechch-	.	8F#/L	8A\L	.	.
(>8F#\L	-świa-	.	8A/	8d\	.	.
8D\J)	.	.	8d/J)	8f#\J	.	.
=9	=9	=9	=9	=9	=9	=9
!	!	!	!	!	!	!LO:HP:a
(>2A\	.	.	(>4d\	2.e\)	.	>
.	.	.	8c#X\L	.	.	.
.	.	.	8B\J	.	.	.
4AA/	.	.	4c#\)	.	.	]]
!!LO:LB:g=original
=10	=10	=10	=10	=10	=10	=10
4BB/)	-ta	.	4d\	4d\	.	.
8r	.	.	8r	8r	.	.
!	!	!	!	!	!	!LO:HP:a
8BB/	Wiel-	.	8F#/	8d\	.	<
8BB/	-kie-	.	8F#/	8d\	.	.
8AA/	-go	.	8F#/	8d#X\	.	[[
=11	=11	=11	=11	=11	=11	=11
!	!	!	!	!	!	!LO:HP:a
(<8.AA/L	Twór-	.	(<8.F#/L	(>8.d#X\L	.	>
16GG/Jk)	.	.	16G/Jk)	16e\Jk)	.	]
4GG/	-cę	.	4G/	4B\	.	.
4GG/	Wszech-	.	4G/	4B\	.	.
=12	=12	=12	=12	=12	=12	=12
2.AA/	-świa-	.	(<2F#/	4A\	.	.
.	.	.	.	(>4.d\	.	.
.	.	.	4G/)	.	.	.
.	.	.	.	8c\)	.	.
=13	=13	=13	=13	=13	=13	=13
4D\	-ta	.	4F#/	4d\	.	.
4r	.	.	4r	4r	.	.
!	!	!	!	!	!	!LO:DY:a:rj
8.D\	I	.	8.F#/	8.A\	.	mf
16D\	my	.	16G/	16B\	.	.
!!LO:PB:g=original
=14	=14	=14	=14	=14	=14	=14
8D\	wio-	.	8A\	8c\	.	.
4.D\	-sen-	.	(>4A\	(>4c^>\	.	.
.	.	.	8G#X\)	8B\)	.	.
8.D\	-nej	.	8.A\	8.c\	.	.
16D\	go-	.	16F#/	16A\	.	.
=15	=15	=15	=15	=15	=15	=15
4D\	-dzi-	.	(<8.F#/L	(>8.A#X\L	.	.
.	.	.	16G/Jk)	16B\Jk)	.	.
4GG/	-nie	.	4G/	4B\	.	.
4D\	Wi-	.	(<8F#/L	(>8An\L	.	.
.	.	.	8G/J)	8B\J)	.	.
=16	=16	=16	=16	=16	=16	=16
8.D\	-ta-	.	8.A\	8.c\	.	.
16D\	-my	.	16A\	16c\	.	.
4D\	du-	.	(>8A\L	(>8c\L	.	.
.	.	.	8G#X\J)	8B\J)	.	.
8.D\	-sze	.	8.A\	8.c\	.	.
16D\	wspa-	.	16F#/	16A\	.	.
!!LO:LB:g=original
=17	=17	=17	=17	=17	=17	=17
4D\	-nia-	.	4F#/	4A#X^>\	.	.
8GG/	-łe	.	8G/	8B\	.	.
8r	.	.	8r	8r	.	.
!	!	!LO:DY:a:rj	!	!	!	!LO:DY:a:rj
8.G\	Co	f	8.G/	8.B\	.	f
16Fn\	dzwi-	.	16G/	16B\	.	.
=18	=18	=18	=18	=18	=18	=18
4E\	-gnę-	.	4G/	(>8d\L	.	.
.	.	.	.	8c\J	.	.
4E\	-ły	.	4G/	4G/)	.	.
8.BB/	tę	.	8.G/	8.d\	.	.
16BB/	świą-	.	16G/	16d#X\	.	.
=19	=19	=19	=19	=19	=19	=19
4C/	-ty-	.	4G/	4e\	.	.
4E\	-nie	.	4G/	4c\	.	.
8.r	.	.	8.r	8.r	.	.
16C#X/	Na	.	16E/	16A\	.	.
=20	=20	=20	=20	=20	=20	=20
4D\	wię-	.	4G/	4B\	.	.
8.D\	-kszą	.	8.G/	8.B\	.	.
16D\	na-	.	16G/	16B\	.	.
8D\	-ro-	.	8G/	8A\	.	.
8D\	-du	.	8F#/	8d\	.	.
!!LO:LB:g=original
=21	=21	=21	=21	=21	=21	=21
!	!	!	!	!LO:TX:a:t=P:problem=diminuendolike accent	!	!
4D#X\	chwa-	.	4F#/	4c^>\	.	.
4E\	-łę	.	4G/	4B\	.	.
(>8C\L	Na	.	4G/	8e\L	.	.
8E\J)	.	.	.	8c\J	.	.
=22	=22	=22	=22	=22	=22	=22
4D\	wię-	.	4G/	4B\	.	.
8.D\	-kszą	.	8.G/	8.B\	.	.
16D\	na-	.	16G/	16B\	.	.
8D\	-ro-	.	8G/	8A\	.	.
8D\	-du	.	8F#/	8d\	.	.
=23	=23	=23	=23	=23	=23	=23
4G\	chwa-	.	4G/	4G/	.	.
8G\	-łę	.	8G/	8G/	.	.
8r	.	.	8r	8r	.	.
8.D\	I	.	4r	4r	.	.
16E\	my	.	.	.	.	.
=24	=24	=24	=24	=24	=24	=24
4.D\	wio-	.	4r	4r	.	.
.	.	.	8r	8r	.	.
!	!	!	!	!	!	!LO:HP:a
8D\	-sen-	.	16F#/	16A\	I	<
.	.	.	16G/	16B\	my	.
8.D\	-nej	.	16A\	16c\	wio-	.
.	.	.	16B\	16d\	-sen-	.
!	!	!	!	!	!	!LO:HP:a
.	.	.	16c\	16e\	-nej	[ >
16D\	go	.	16B\	16d\	go-	]]
!!LO:LB:g=original
=25	=25	=25	=25	=25	=25	=25
4G\	.	.	4B\	4d\	-dzi-	.
8G\	.	.	8G/	8B\	-nie	.
8r	.	.	8r	8r	.	.
(>8D\L	Wi-	.	4r	4r	.	.
16C#X\L	.	.	.	.	.	.
16E\JJ)	.	.	.	.	.	.
=26	=26	=26	=26	=26	=26	=26
8D\	-ta-	.	4r	4r	.	.
8D\	-my	.	.	.	.	.
4D\	du-	.	8r	8r	.	.
!	!	!	!	!	!	!LO:HP:a
.	.	.	16F#/	16A\	Wi-	<
.	.	.	16G/	16B\	-ta-	.
8.D\	-sze	.	16A\	16c\	-my	.
.	.	.	16c\	16e\	du-	.
!	!	!	!LO:N:vis=8.	!	!	!
!	!	!	!	!	!	!LO:HP:a
.	.	.	16.B\	16.d\	-sze	[ >
16D\	wspa-	.	.	.	.	.
!	!	!	!LO:N:vis=16	!	!	!
.	.	.	32A#X\	32c#X\	wspa-	]]
=27	=27	=27	=27	=27	=27	=27
4GG/	-nia-	.	(>[>8B\L	(>[>8d\L	-nia-	.
.	.	.	32B\LL]	32d\LL]	.	.
.	.	.	32c\	32e\	.	.
.	.	.	32B\	32d\	.	.
.	.	.	32A\JJJ)	32c\JJJ	.	.
4GG/	-łe	.	4G/	4B\)	-łe	.
!	!	!	!	!	!	!LO:DY:a:rj
8.G\	Co	.	8.G/	8.B\	Co	f
16Fn\	dzwi-	.	16G/	16B\	dzwi	.
!!LO:PB:g=original
=28	=28	=28	=28	=28	=28	=28
4E\	-gnę-	.	4G/	(>8d\L	.	.
.	.	.	.	8c\J	.	.
4E\	-ły	.	4G/	4G/)	.	.
8.BB/	tę	.	8.G/	8.d\	.	.
16BB/	świą-	.	16G/	16d#X\	.	.
=29	=29	=29	=29	=29	=29	=29
4C/	-ty-	.	4G/	4e\	.	.
4E\	-nie	.	4G/	4c\	.	.
8.r	.	.	8.r	8.r	.	.
16C#X/	Na	.	16E/	16A#X\	.	.
=30	=30	=30	=30	=30	=30	=30
4D\	wię-	.	4G/	4B\	.	<
8D\	-kszą	.	8G/	8B\	.	.
8D\	Na-	.	8G/	8B\	.	.
8BB/	-ro-	.	8G/	8d\	.	.
8GG/	-du	.	8B\	8g\	.	[[
!!LO:LB:g=original
=31	=31	=31	=31	=31	=31	=31
>(2D\	chwa-	.	(>2A\	(>4g\	.	.
.	.	.	.	8f#\L	.	.
.	.	.	.	8e\J	.	.
8.D#X\L	.	.	8.c\L	8.f#\L	.	.
16E\Jk)	.	.	16B\Jk)	16g\Jk)	.	.
=32	=32	=32	=32	=32	=32	=32
2E\	-łę	.	2B\	2g\	.	.
4C/	Na	.	4c\	4e\	.	.
=33	=33	=33	=33	=33	=33	=33
4D\	wię-	.	(>16B\LL	(>16d\LL	.	.
.	.	.	16c\	16e\	.	.
.	.	.	16B\	16d\	.	.
.	.	.	16A\JJ	16c\JJ)	.	.
8D\	-kszą	.	8G/)	8B\	.	.
8D\	Na-	.	8d\	8d\	.	.
8B\	-ro-	.	8B\	8B\	.	.
8G\	-du	.	8G/	8G/	.	.
=34	=34	=34	=34	=34	=34	=34
!	!	!LO:DY:a:rj	!	!	!	!LO:DY:a:rj
2.D\	chwa-	p	(<4G/	(>2A\	.	p
.	.	.	8F#/L	.	.	.
.	.	.	8E/J	.	.	.
!	!	!	!	!LO:TX:t=P:problem=w źródle wykreślony jeden takt	!	!
.	.	.	4F#/)	4d\)	.	.
!!LO:LB:g=original
=35	=35	=35	=35	=35	=35	=35
4G\	-łę	.	4G/	4G/	.	.
!	!	!	!	!LO:N:vis=16	!	!
8r	.	.	8r	8r	.	.
!	!	!	!	!	!	!LO:DY:a:rj
16G\	Co	.	16G/	16G/	.	f
16F#\	dzwi-	.	16A/	16A/	.	.
16Fn\	-gnę-	.	16G/	16B\	.	.
16E\	-ły	.	16G/	16c\	.	.
16BB/	tę	.	16G/	16d\	.	.
16C/	świą-	.	16G/	16e\	.	.
=36	=36	=36	=36	=36	=36	=36
4BB/	-ty-	.	4G/	4d\	.	.
16E\	-nie	.	16G/	16G/	.	.
16E\	Wi-	.	16G/	16G/	.	.
16AA/	-ta-	.	16E/	16c\	.	.
16AA/	-my	.	16E/	16c\	.	.
4D\	was	.	4F#/	4A\	.	.
=37	=37	=37	=37	=37	=37	=37
4D\	du-	.	4d\	4d\	.	.
4.c\	-sze	.	4.c\	4.e\	.	.
8A\	wspa-	.	8c\	8f#\	.	.
!!LO:LB:g=original
=38	=38	=38	=38	=38	=38	=38
!	!	!	!	!	!	!LO:DY:a:rj
2.G\	-nia-	.	2.B\	2.g\	.	ff
=39	=39	=39	=39	=39	=39	=39
4G\	-łe.	.	4B\	4g\	.	.
4r	.	.	4r	4r	.	.
==	==	==	==	==	==	==
*-	*-	*-	*-	*-	*-	*-
!!!system-decoration: {s1,s2,s3}
!!!RDF**kern: > = above
!!!RDF**kern: < = below
!!!RDF**kern: | = vertical stroke
!!!RDF**kern: N = linked
!!!RDF**kern: i = editorial accidental
!!!EED: Wojciech Jakubiak-Danek
!!!EEV: 2021-06-09
!!!ENC: Andrzej Gręziak
!!!END: 2021-06-05
!!!YEC: Copyright 2022 Narodowy Instytut Fryderyka Chopina (https://polishscores.org)
!!!YEM: Licence CC BY 4.0 (https://creativecommons.org/licenses/by/4.0)
